X: 1
T: Miss Monaghan's reel
C: trad Ireland
R: reel
Z: 2020 John Chambers <jc:trillian.mit.edu>
S: https://www.facebook.com/groups/Fiddletuneoftheday/
S: https://www.facebook.com/groups/Fiddletuneoftheday/photos/
M: C|
L: 1/8
K: D
|:\
"D"D2FE FAAd | "G"B2BA FABc | "D"d2dB ABde | "A"fede fee2 |
"D"D2FE FAAd | "G"B2BA FABc | "D"d2dB ABdB | "A"AFGE "D"FDD2 :|
|:\
"D"faab afdf | "Em"gefd edBc | "D"d2dB ABde | "A"fede fee2 |
"D"faab afdf | "Em"gefd edBc | "D"dcdB ABcB | "A"AFEG "D"FDD2 :|
